16x16/panel/seafile-status-syncing-1.svg

<svg height="16" width="16" xmlns="http://www.w3.org/2000/svg"><g fill="#bebebe"><path d="m5.5 2a2.5 2.5 0 0 0 -2.5 2.5 2.5 2.5 0 0 0 .08.615 1.496 1.496 0 0 0 -1.988.885h-.592a.5.5 0 0 0 -.5.5.5.5 0 0 0 .5.5h2.564c.632-.616 1.492-1 2.436-1a1 1 0 0 0 .002 0c.271 0 .491.19.752.252.288-.967.879-1.8 1.662-2.385a2.5 2.5 0 0 0 -2.416-1.867z" opacity=".3"/><path d="m10.5 4a3.5 3.5 0 0 0 -3.5 3.5v.004a2.5 2.5 0 0 0 -1.5-.504 2.5 2.5 0 0 0 -2.5 2.5c.001.19.024.38.068.564a1.5 1.5 0 0 0 .432 2.936h.643c.565-.158.843-.507 1.125-.854 1.43-1.978 2.661-4.14 4.921-4.146 1.811 0 2.811 1 2.811 2.5a1.5 1.5 0 1 1 -2.943-.404c-.633.217-1.07.82-1.118 1.465.06 1.512 1.543 1.453 1.543 1.453l3.518-.014a2 2 0 1 0 -.357-3.967 3.5 3.5 0 0 0 .357-1.533 3.5 3.5 0 0 0 -3.5-3.5z"/></g></svg>

<svg xmlns="http://www.w3.org/2000/svg" width="16" height="16"><defs><style id="current-color-scheme" type="text/css">.ColorScheme-Text{color:#bebebe}</style></defs><path class="ColorScheme-Text" d="M5.5 2A2.5 2.5 0 0 0 3 4.5a2.5 2.5 0 0 0 .08.615A1.496 1.496 0 0 0 1.092 6H.5a.5.5 0 0 0-.5.5.5.5 0 0 0 .5.5h2.564c.632-.616 1.492-1 2.436-1a1 1 0 0 0 .002 0c.271 0 .491.19.752.252.288-.967.879-1.8 1.662-2.385A2.5 2.5 0 0 0 5.5 2z" opacity=".3" fill="currentColor"/><path class="ColorScheme-Text" d="M10.5 4A3.5 3.5 0 0 0 7 7.5v.004A2.5 2.5 0 0 0 5.5 7 2.5 2.5 0 0 0 3 9.5c.001.19.024.38.068.564A1.5 1.5 0 0 0 3.5 13h.643c.565-.158.843-.507 1.125-.854 1.43-1.978 2.661-4.14 4.921-4.146C12 8 13 9 13 10.5a1.5 1.5 0 1 1-2.943-.404c-.633.217-1.07.82-1.118 1.465.06 1.512 1.543 1.453 1.543 1.453L14 13a2 2 0 1 0-.357-3.967A3.5 3.5 0 0 0 14 7.5 3.5 3.5 0 0 0 10.5 4z" fill="currentColor"/></svg>
